X:1 
T:Over the Hills and Far Away
C:Traditional
Q:1/4=120
N: not sure about the chords on this AT ALL
V:1
M:4/4
L:1/8    
K:G
"G" GA BA GA BA | "C" G2 E2 "D" E2 D2 | "G" GA BA GA BG | "C" c2 A2 "D" A4 |
"G" GA BA GA BA | G2 E2 "C" c4 | "C" E2 DC "G" D2 GA | "D" c2 A2 A4 ||
"G" d3 c B2 AB | "C" G2 E2 E4 | "G" d3 c B2 AB | "D" c2 A2 A4 |
"G" d3 c B2 AB | G2 E2 "C" c4 | "C" E2 DC "G" D2 GA | "D" c2 A2 A4 |]
   
